!!!OTL: 340. Gesundheit, Herr Nachbar!
!!!COM: K. D. v. Dittersdorf
!!!ODT: 1790
!!!ARE: Europa, Mitteleuropa, Deutschland
!!!SCT: B0340
!!!TXL: @@DE
!!!YEM: Copyright 1995, estate of Helmut Schaffrath.
**kern	**text
*ICvox	*
*Ivox	*
*clefG2	*
*M3/8	*
*k[f#]	*
*G:	*
!LO:TX:a:t=Gemüthlich.	!
{8d	Ge-
=1	=1
8g	-ſund-
8g	-heit,
8d	Herr
=2	=2
8g	Nachbar!
8g	.
8d	Mein
=3	=3
8g	Gläschen
8g	.
8d	iſt
=4	=4
4g}	leer!
{8a	Herr
=5	=5
8b	Bru-
8b	-der,
8a	Herr
=6	=6
8b	Vet-
8b	-ter,
8a	nun
=7	=7
8b	rü-
8b	-cken
8a	Sie
=8	=8
4b}	her!
{8dd	Wir
=9	=9
8dd	wol-
8gg	-len
8b	eins
=10	=10
8dd	trin-
8cc	-ken
8cc	und
=11	=11
8cc	mun-
8ee	-ter
8a	uns
=12	=12
8cc	ʒei-
8b}	-gen,
{8dd	wir
=13	=13
8dd	wol-
8gg	-len
8b	das
=14	=14
8dd	Gläschen
8cc	.
8cc	dem
=15	=15
8cc	Nachbar
8ee	.
8a	hin-
=16	=16
8cc	-rei-
8b}	-chen;
{8a	wir
=17	=17
8b	wol-
8b	-len
8b	nun
=18	=18
8a	trin-
8a	-ken,
8a	bis
=19	=19
8cc#	Al-
8cc#	-les
8cc#	iſt
=20	=20
4dd}	leer!
{8d	Wenns
=21	=21
8g	im-
16gL	-mer,
16aJ	.
16bL	wenns
16gJ	.
=22	=22
8e	im-
8e	-mer,
8e	wenns
=23	=23
8cc	im-
8a	-mer
8f#	ſo
=24	=24
4g}	wär'!
!LO:TX:a:t=Chor.	!
{16bL	Wenns
16ddJ	.
=25	=25
(8ddqq	.
8cc)	im-
16ccL	-mer,
16bJ	.
16ccL	wenns
16eeJ	.
=26	=26
8dd	im-
8dd}	-mer,
{16bL	wenns
16ddJ	.
=27	=27
8ddq	.
8cc	immer,
16ccL	.
16bJ	.
16ccL	wenns
16eeJ	.
=28	=28
8dd	im-
8dd}	-mer,
{16bL	wenns
16ddJ	.
=29	=29
16ddL	im-
16ccJ	.
8b	-mer
8a	ſo
=30	=30
4g}	wär'!
==	==
!!!AGN: Trink - Lied
!!!GTL: Wein- und Trinklieder
!!!ONB: ESAC (Essen Associative Code) Database: BOEHME
!!!AMT: simple triple
!!!AIN: vox
!!!EED: Helmut Schaffrath
!!!EEV: 1.0
!!Mel. v. Dittersdorf 1790.
!!@@COMMENT:"Lied ʒuerſt 1793 bekannt. Melodie aus der Oper: "Hokus Pokus." Text von Vulpius, Muſik
!!von Dittersdorf 1790. Das Trinklied in der Oper beginnt: Dem Gotte der Reben vertrau'
!!ich mein Glück". Darin am Schluſſe der Chorrefrain: Wenns immer ſo wär'!" Nach dieſer
!!hübſchen Walʒermelodie wurde auch ein anderes langweiliges Lied geſungen, welches begann: Wenns
!!immer ſo wär' 2c."
!!@@END:
!!!Text: Ch. A. Vulpius
!!!URL-scan: https://archive.org/details/BoehmeVtLieder1895/page/n283/mode/2up
!!!ENC: Anna Maria Matuszewska
!!!EEV: 2024/05/07
*-	*-
